X: 77
T:Dundai
C:Folk 1947
O:Israel
Z:Seymour Shlien fy733@ncf.ca
L:1/8
M:2/4
Q:1/4=180
K:Dm
|:"Dm"d2 dd| A2 A2| d2 dd| A4    | F2 A2    | "F"cB"Dm"AG| F2 "Am"E2 |"Dm"D4   :|
|:"Dm"F2 A2| GFED | F2 A2| "Gm"G4| "Dm"F2 A2| "F"cB"Dm"AG| F2 "Am"E2 | "Dm"D4  :|



